X:4
T:New Slow Air
T:Harmony 2
C:Lyric Todkill
L:1/8
R:Slow Air
M:3/4
K:D
Q:"68 bpm"
[| {g}Bd {ag}a3g | {a}fa {c}d3c | {g}Bd {gf}g3B | {d}c4 {G}A2 | 
{g}B2 {g}e/d/(B B2)| {g}B2 A4 | {g}G2 {g}G2 A2 | A3 B dc ||
dA/A/ dA/A/ B/d/g/f/ | {g}a/g/f {gc}d2e2 | dA/A/ dA/A/ B/d/B | {ge}d4 cB |
f3 e df | {g}a/g/f {gc}d4 | e2 c2 e2 | f4 A2 |
"Watch foot"{g}!tenuto!B!tenuto!d {ag}a3g [M:5/4]| {a}fd {g}A/B/d {gf}d4 {g}c/d/e "Spey Time"[M:C]|{ag}e4 g4 |]

